X:45
T:Elaineâ€™s Hambo
M:3/4
L:1/8
R:Hambo
C:Andrea Hoag
N:Rodney Millerâ€™s Airdance, GMM2003
N:Transcribed by Bruce Thomson
K:A
|:â€Aâ€c2BA2G|A2GF2E|DC2D3|â€Eâ€B,2CD2E|F3FG2|â€Aâ€E3E3|
â€œF#mâ€c2BA2G|A2GF2E|DC2D3|â€Eâ€E2FG2A|B2cd3|e3efg|
â€œAâ€a2ec2A|â€Dâ€d2cdf2|â€Eâ€B2AG2A|B2cd2d|â€Aâ€dBGA2z|A6:|
|:â€Dâ€f2ed2e|f2gâ€Aâ€a2e|cecA2c|â€Eâ€B2AG2A|B2Gâ€Aâ€A3|c3e3|
â€œDâ€f2ed2e|f2gâ€Aâ€a2e|cecA2c|â€Eâ€B2AG2A|B2Gâ€Aâ€A2z|A6:|

